src/icons/electric.svg

<svg xmlns="http://www.w3.org/2000/svg" xml:space="preserve" style="fill-rule:evenodd;clip-rule:evenodd;stroke-linejoin:round;stroke-miterlimit:2" viewBox="0 0 481 480"><path d="M358.8 219.76A8.01 8.01 0 0 0 352 216h-88V96c-.026-4.371-3.629-7.953-8-7.953a8.01 8.01 0 0 0-7.12 4.353l-96 192a8 8 0 0 0-.856 3.6c0 4.38 3.596 7.987 7.976 8h88v120a8.02 8.02 0 0 0 6.16 7.76 7.3 7.3 0 0 0 1.84.24 8.01 8.01 0 0 0 7.12-4.4l96-192a8.06 8.06 0 0 0-.32-7.84M264 382.08V288c0-4.389-3.611-8-8-8h-83.04L248 129.92V224c0 4.389 3.611 8 8 8h83.04z" style="fill-rule:nonzero" transform="translate(-15.999 -16)"/><path d="M451.28 116.64c12.526-15.773 11.245-38.681-2.96-52.96l-22.64-22.64c-3.143-2.983-8.137-2.983-11.28 0l-5.68 5.68-22.64-22.64-11.28 11.28L397.44 58l-11.36 11.36-22.64-22.64L352.16 58l22.64 22.64-5.68 5.68c-3.081 3.1-3.081 8.18 0 11.28l22.64 22.64c12.416 12.519 31.783 15.276 47.2 6.72A221.46 221.46 0 0 1 480 256c-.11 122.917-101.283 223.999-224.2 223.999a224.2 224.2 0 0 1-84.76-16.639l-6.08 14.8A240.2 240.2 0 0 0 255.8 496c131.694 0 240.09-108.306 240.2-240a237.4 237.4 0 0 0-44.72-139.36m-14.24-7.68c-9.373 9.221-24.627 9.221-34 0l-16.96-17.04 34-33.92 16.96 16.96c9.297 9.339 9.297 24.661 0 34M256 16c-131.599.162-239.838 108.401-240 240a237.4 237.4 0 0 0 44.72 139.36c-12.526 15.773-11.245 38.681 2.96 52.96l22.64 22.64a7.74 7.74 0 0 0 5.6 2.32 7.93 7.93 0 0 0 5.68-2.32l5.68-5.68 22.64 22.64 11.28-11.28L114.56 454l11.36-11.36 22.64 22.64L159.84 454l-22.64-22.64 5.68-5.68c3.081-3.1 3.081-8.18 0-11.28l-22.64-22.64c-12.482-12.393-31.755-15.137-47.2-6.72A221.46 221.46 0 0 1 32 256c.136-122.831 101.169-223.864 224-224a221.9 221.9 0 0 1 84.96 16.72l6.08-14.88A239.45 239.45 0 0 0 256 16M74.96 403.04c9.373-9.221 24.627-9.221 34 0l16.96 17.04-34 33.92-16.96-16.96c-9.297-9.339-9.297-24.661 0-34" style="fill-rule:nonzero" transform="translate(-15.999 -16)"/></svg>

<?xml version="1.0" encoding="UTF-8" standalone="no"?>
<!DOCTYPE svg PUBLIC "-//W3C//DTD SVG 1.1//EN" "http://www.w3.org/Graphics/SVG/1.1/DTD/svg11.dtd">
<svg width="100%" height="100%" viewBox="0 0 481 480" version="1.1" xmlns="http://www.w3.org/2000/svg" xmlns:xlink="http://www.w3.org/1999/xlink" xml:space="preserve" style="fill-rule:evenodd;clip-rule:evenodd;stroke-linejoin:round;stroke-miterlimit:2;">
    <g transform="matrix(1,0,0,1,-15.999,-15.9997)">
        <g id="Electric_Plug-2">
            <path d="M358.8,219.76C357.337,217.419 354.761,215.994 352,216L264,216L264,96C263.974,91.629 260.371,88.047 256,88.047C253.003,88.047 250.247,89.732 248.88,92.4L152.88,284.4C152.317,285.517 152.024,286.75 152.024,288C152.024,292.38 155.62,295.987 160,296L248,296L248,416C248.012,419.687 250.571,422.912 254.16,423.76C254.761,423.918 255.379,423.999 256,424C259.008,423.991 261.766,422.286 263.12,419.6L359.12,227.6C360.378,225.111 360.257,222.139 358.8,219.76ZM264,382.08L264,288C264,283.611 260.389,280 256,280L172.96,280L248,129.92L248,224C248,228.389 251.611,232 256,232L339.04,232L264,382.08Z" style="fill-rule:nonzero;"/>
            <path d="M451.28,116.64C463.806,100.867 462.525,77.959 448.32,63.68L425.68,41.04C422.537,38.057 417.543,38.057 414.4,41.04L408.72,46.72L386.08,24.08L374.8,35.36L397.44,58L386.08,69.36L363.44,46.72L352.16,58L374.8,80.64L369.12,86.32C366.039,89.42 366.039,94.5 369.12,97.6L391.76,120.24C404.176,132.759 423.543,135.516 438.96,126.96C465.775,164.627 480.13,209.763 480,256C479.89,378.917 378.717,479.999 255.8,479.999C226.736,479.999 197.947,474.348 171.04,463.36L164.96,478.16C193.796,489.94 224.65,496 255.8,496C387.494,496 495.89,387.694 496,256C496.145,206.003 480.49,157.217 451.28,116.64ZM437.04,108.96C427.667,118.181 412.413,118.181 403.04,108.96L386.08,91.92L420.08,58L437.04,74.96C446.337,84.299 446.337,99.621 437.04,108.96Z" style="fill-rule:nonzero;"/>
            <path d="M256,16C124.401,16.162 16.162,124.401 16,256C15.855,305.997 31.51,354.783 60.72,395.36C48.194,411.133 49.475,434.041 63.68,448.32L86.32,470.96C87.793,472.462 89.816,473.301 91.92,473.28C94.047,473.301 96.096,472.464 97.6,470.96L103.28,465.28L125.92,487.92L137.2,476.64L114.56,454L125.92,442.64L148.56,465.28L159.84,454L137.2,431.36L142.88,425.68C145.961,422.58 145.961,417.5 142.88,414.4L120.24,391.76C107.758,379.367 88.485,376.623 73.04,385.04C46.225,347.373 31.87,302.237 32,256C32.136,133.169 133.169,32.136 256,32C285.143,31.939 314.014,37.621 340.96,48.72L347.04,33.84C318.147,22.015 287.219,15.955 256,16ZM74.96,403.04C84.333,393.819 99.587,393.819 108.96,403.04L125.92,420.08L91.92,454L74.96,437.04C65.663,427.701 65.663,412.379 74.96,403.04Z" style="fill-rule:nonzero;"/>
        </g>
    </g>
</svg>
